src/assets/selectIconsSpells/veleno_4.svg

<svg xmlns="http://www.w3.org/2000/svg" viewBox="0 0 512 512"><path d="M0 0h512v512H0z"/><path fill="#fff" d="M39.344 15c-.778 0-1.554.045-2.344.125-12.645 1.288-21.85 12.573-20.563 25.22 1.288 12.644 12.574 21.85 25.22 20.56C54.3 59.62 63.506 48.334 62.218 35.688 61.01 23.832 51.01 14.997 39.343 15zm121.187 9.125c-.46 0-.937.015-1.405.063-7.48.76-12.918 7.457-12.156 14.937.76 7.48 7.456 12.918 14.936 12.156 7.48-.76 12.918-7.425 12.156-14.905-.714-7.013-6.63-12.252-13.53-12.25zM84.72 42.063c-.46 0-.91.014-1.376.062-7.48.762-12.95 7.457-12.188 14.938.762 7.48 7.457 12.918 14.938 12.156 7.48-.763 12.918-7.427 12.156-14.907-.714-7.013-6.63-12.252-13.53-12.25zm109.718 11.812c-.747 0-1.492.017-2.25.094-12.136 1.235-20.986 12.082-19.75 24.218 1.235 12.135 12.083 20.985 24.218 19.75 12.135-1.236 20.955-12.084 19.72-24.22-1.16-11.376-10.744-19.846-21.94-19.843zM119.53 77.72c-1.322 0-2.654.05-4 .186-7.677.782-14.606 3.768-20.25 8.22-5.088-4.18-11.774-6.408-18.843-5.69-14.072 1.435-24.34 13.99-22.906 28.064 1.434 14.073 14.022 24.308 28.095 22.875.483-.05.964-.112 1.438-.188 4.48 11.417 14.082 20.036 25.75 23.344-1.302 3.463-1.838 7.26-1.438 11.19 1.385 13.598 13.557 23.51 27.156 22.124 13.6-1.385 23.48-13.526 22.095-27.125-.692-6.8-4.06-12.686-8.97-16.69 7.707-8.002 11.996-19.206 10.782-31.124-2.053-20.166-19.062-35.193-38.906-35.187zm108.876 43.405c-1.983 0-3.984.076-6 .28-32.25 3.286-55.722 32.094-52.437 64.345.494 4.868 1.572 9.53 3.155 13.938-16.95 7.738-27.9 25.62-25.906 45.187 2.5 24.564 24.434 42.44 49 39.938 4.128-.42 8.062-1.405 11.75-2.844.047 1.358.14 2.72.28 4.092 3.11 30.542 28.016 53.592 57.72 55.282-4.984 15.2-6.945 31.654-5.22 48.594.05.49.1.98.156 1.468-.312.024-.624.03-.937.063-19.733 2.008-34.073 19.642-32.064 39.374 2.01 19.73 19.612 34.103 39.344 32.094 7.937-.81 15.016-4.143 20.5-9.125 24.262 28.84 61.9 45.574 102.22 41.468 64.763-6.594 111.907-64.453 105.31-129.217-4.034-39.622-27.25-72.647-59.5-90.813 1.907-7.465 2.546-15.39 1.72-23.5-3.77-37.03-36.846-63.99-73.875-60.22-25.248 2.572-45.788 18.78-55.125 40.564-9.945-8.12-22.39-13.146-35.813-13.813 10.245-11.804 15.77-27.628 14.063-44.405-3.08-30.236-28.592-52.758-58.344-52.75zm108.78 1.72c-.994 0-1.987.052-2.998.155-16.18 1.648-27.96 16.1-26.313 32.28 1.648 16.182 16.1 27.962 32.28 26.314 16.182-1.648 27.962-16.1 26.314-32.28-1.546-15.17-14.356-26.474-29.283-26.47zm59.564 26.343c-.46 0-.94.046-1.406.093-7.48.763-12.918 7.427-12.156 14.907.76 7.48 7.457 12.92 14.937 12.157 7.48-.762 12.918-7.426 12.156-14.906-.713-7.013-6.63-12.252-13.53-12.25zM61.562 202.375c-.46 0-.907.015-1.374.063-7.48.76-12.95 7.425-12.188 14.906.635 6.24 5.41 11.045 11.313 12.03-.555 2.602-.722 5.338-.438 8.126 1.465 14.388 14.3 24.87 28.688 23.406 14.387-1.465 24.87-14.33 23.406-28.72-1.466-14.386-14.3-24.87-28.69-23.405-2.86.293-5.572 1.042-8.06 2.157-2.028-5.095-7.024-8.564-12.657-8.562zm44.126 75.906c-.67 0-1.352.026-2.032.095-10.883 1.108-18.796 10.835-17.687 21.72 1.107 10.882 10.834 18.795 21.718 17.686 10.883-1.107 18.795-10.803 17.687-21.686-1.04-10.203-9.648-17.815-19.688-17.813zm48.78 37.25c-1.467.002-2.945.068-4.437.22-23.873 2.43-41.243 23.782-38.81 47.656 2.43 23.874 23.75 41.244 47.624 38.813 10.225-1.043 19.265-5.562 26.062-12.25 5.16 2.962 11.255 4.397 17.625 3.75 16.182-1.65 27.962-16.102 26.314-32.283-1.648-16.18-16.1-27.96-32.28-26.312-1.783.18-3.495.523-5.158 1-7.74-12.493-21.584-20.598-36.937-20.594z"/></svg>

<?xml version="1.0" encoding="UTF-8" standalone="no"?>
<!DOCTYPE svg PUBLIC "-//W3C//DTD SVG 1.1//EN" "http://www.w3.org/Graphics/SVG/1.1/DTD/svg11.dtd">
<svg width="100%" height="100%" viewBox="0 0 512 512" version="1.1" xmlns="http://www.w3.org/2000/svg" xmlns:xlink="http://www.w3.org/1999/xlink" xml:space="preserve" xmlns:serif="http://www.serif.com/" style="fill-rule:evenodd;clip-rule:evenodd;stroke-linejoin:round;stroke-miterlimit:2;">
    <rect x="0" y="0" width="512" height="512" style="fill-rule:nonzero;"/>
    <path d="M39.344,15C38.566,15 37.79,15.045 37,15.125C24.355,16.413 15.15,27.698 16.437,40.345C17.725,52.989 29.011,62.195 41.657,60.905C54.3,59.62 63.506,48.334 62.218,35.688C61.01,23.832 51.01,14.997 39.343,15L39.344,15ZM160.531,24.125C160.071,24.125 159.594,24.14 159.126,24.188C151.646,24.948 146.208,31.645 146.97,39.125C147.73,46.605 154.426,52.043 161.906,51.281C169.386,50.521 174.824,43.856 174.062,36.376C173.348,29.363 167.432,24.124 160.532,24.126L160.531,24.125ZM84.72,42.063C84.26,42.063 83.81,42.077 83.344,42.125C75.864,42.887 70.394,49.582 71.156,57.063C71.918,64.543 78.613,69.981 86.094,69.219C93.574,68.456 99.012,61.792 98.25,54.312C97.536,47.299 91.62,42.06 84.72,42.062L84.72,42.063ZM194.438,53.875C193.691,53.875 192.946,53.892 192.188,53.969C180.052,55.204 171.202,66.051 172.438,78.187C173.673,90.322 184.521,99.172 196.656,97.937C208.791,96.701 217.611,85.853 216.376,73.717C215.216,62.341 205.632,53.871 194.436,53.874L194.438,53.875ZM119.53,77.72C118.208,77.72 116.876,77.77 115.53,77.906C107.853,78.688 100.924,81.674 95.28,86.126C90.192,81.946 83.506,79.718 76.437,80.436C62.365,81.871 52.097,94.426 53.531,108.5C54.965,122.573 67.553,132.808 81.626,131.375C82.109,131.325 82.59,131.263 83.064,131.187C87.544,142.604 97.146,151.223 108.814,154.531C107.512,157.994 106.976,161.791 107.376,165.721C108.761,179.319 120.933,189.231 134.532,187.845C148.132,186.46 158.012,174.319 156.627,160.72C155.935,153.92 152.567,148.034 147.657,144.03C155.364,136.028 159.653,124.824 158.439,112.906C156.386,92.74 139.377,77.713 119.533,77.719L119.53,77.72ZM228.406,121.125C226.423,121.125 224.422,121.201 222.406,121.405C190.156,124.691 166.684,153.499 169.969,185.75C170.463,190.618 171.541,195.28 173.124,199.688C156.174,207.426 145.224,225.308 147.218,244.875C149.718,269.439 171.652,287.315 196.218,284.813C200.346,284.393 204.28,283.408 207.968,281.969C208.015,283.327 208.108,284.689 208.248,286.061C211.358,316.603 236.264,339.653 265.968,341.343C260.984,356.543 259.023,372.997 260.748,389.937C260.798,390.427 260.848,390.917 260.904,391.405C260.592,391.429 260.28,391.435 259.967,391.468C240.234,393.476 225.894,411.11 227.903,430.842C229.913,450.572 247.515,464.945 267.247,462.936C275.184,462.126 282.263,458.793 287.747,453.811C312.009,482.651 349.647,499.385 389.967,495.279C454.73,488.685 501.874,430.826 495.277,366.062C491.243,326.44 468.027,293.415 435.777,275.249C437.684,267.784 438.323,259.859 437.497,251.749C433.727,214.719 400.651,187.759 363.622,191.529C338.374,194.101 317.834,210.309 308.497,232.093C298.552,223.973 286.107,218.947 272.684,218.28C282.929,206.476 288.454,190.652 286.747,173.875C283.667,143.639 258.155,121.117 228.403,121.125L228.406,121.125ZM337.186,122.845C336.192,122.845 335.199,122.897 334.188,123C318.008,124.648 306.228,139.1 307.875,155.28C309.523,171.462 323.975,183.242 340.155,181.594C356.337,179.946 368.117,165.494 366.469,149.314C364.923,134.144 352.113,122.84 337.186,122.844L337.186,122.845ZM396.75,149.188C396.29,149.188 395.81,149.234 395.344,149.281C387.864,150.044 382.426,156.708 383.188,164.188C383.948,171.668 390.645,177.108 398.125,176.345C405.605,175.583 411.043,168.919 410.281,161.439C409.568,154.426 403.651,149.187 396.751,149.189L396.75,149.188ZM61.562,202.375C61.102,202.375 60.655,202.39 60.188,202.438C52.708,203.198 47.238,209.863 48,217.344C48.635,223.584 53.41,228.389 59.313,229.374C58.758,231.976 58.591,234.712 58.875,237.5C60.34,251.888 73.175,262.37 87.563,260.906C101.95,259.441 112.433,246.576 110.969,232.186C109.503,217.8 96.669,207.316 82.279,208.781C79.419,209.074 76.707,209.823 74.219,210.938C72.191,205.843 67.195,202.374 61.562,202.376L61.562,202.375ZM105.688,278.281C105.018,278.281 104.336,278.307 103.656,278.376C92.773,279.484 84.86,289.211 85.969,300.096C87.076,310.978 96.803,318.891 107.687,317.782C118.57,316.675 126.482,306.979 125.374,296.096C124.334,285.893 115.726,278.281 105.686,278.283L105.688,278.281ZM154.468,315.531C153.001,315.533 151.523,315.599 150.031,315.751C126.158,318.181 108.788,339.533 111.221,363.407C113.651,387.281 134.971,404.651 158.845,402.22C169.07,401.177 178.11,396.658 184.907,389.97C190.067,392.932 196.162,394.367 202.532,393.72C218.714,392.07 230.494,377.618 228.846,361.437C227.198,345.257 212.746,333.477 196.566,335.125C194.783,335.305 193.071,335.648 191.408,336.125C183.668,323.632 169.824,315.527 154.471,315.531L154.468,315.531Z" style="fill:rgb(211,255,0);fill-rule:nonzero;"/>
</svg>
